newicons/running_services_monitor.svg

<?xml version="1.0" encoding="UTF-8" standalone="no"?>
<svg
   viewBox="0 0 48 48"
   version="1.1"
   id="svg1"
   xml:space="preserve"
   xmlns="http://www.w3.org/2000/svg"
   xmlns:svg="http://www.w3.org/2000/svg"><defs
     id="defs1"><style
       id="style1">.a{fill:none;stroke:#fff;stroke-linecap:round;stroke-linejoin:round;}</style></defs><path
     style="fill:none;stroke:#ffffff;stroke-width:1;stroke-linecap:round;stroke-linejoin:round"
     d="m 11.140487,24.946037 6.702339,0.03207 2.148598,-4.200987 2.597558,9.94127 3.591684,-13.436749 2.854107,7.760603 7.82474,-0.160342"
     id="path1" /><path
     id="path2"
     style="fill:none;stroke:#ffffff;stroke-width:1;stroke-linecap:round;stroke-linejoin:round"
     d="m 36.287577,27.013267 c -1.351636,5.529952 -6.339505,9.633792 -12.285877,9.633792 -5.951368,0 -10.94262,-4.110738 -12.289277,-9.647729 m 0.105186,-6.401892 c 1.485926,-5.332166 6.37812,-9.244497 12.184088,-9.244497 5.775285,0 10.64643,3.871089 12.160245,9.160078" /><path
     style="fill:none;fill-rule:nonzero;stroke:#ffffff;stroke-width:1;stroke-linecap:round;stroke-linejoin:round"
     d="m 24,2.5 c -0.766517,0 -1.524345,0.04048 -2.270048,0.1185662 L 21.191464,5.2369026 C 19.751059,5.4505837 18.36216,5.82528 17.046588,6.34352 L 15.268095,4.3427161 C 13.875087,4.961876 12.560862,5.727481 11.343061,6.615235 l 0.842313,2.539292 c -1.12093,0.89311 -2.137737,1.909917 -3.0308471,3.030847 L 6.615234,11.343061 C 5.727481,12.560862 4.9618758,13.875087 4.342716,15.268095 L 6.34352,17.046588 C 5.8252799,18.36216 5.4505836,19.751059 5.2369026,21.191464 L 2.6185661,21.729952 C 2.5404794,22.475655 2.5,23.233483 2.5,24 c 0,0.766517 0.040479,1.524345 0.1185661,2.270049 l 2.6183365,0.538487 c 0.213681,1.440406 0.5883773,2.829304 1.1066173,4.144877 l -2.000804,1.778492 c 0.6191598,1.393008 1.384765,2.707235 2.272518,3.925035 l 2.539293,-0.842314 c 0.8931101,1.120932 1.9099171,2.137739 3.0308471,3.030847 l -0.842313,2.539293 c 1.217801,0.887754 2.532026,1.653358 3.925034,2.272519 l 1.778493,-2.000804 c 1.315572,0.51824 2.704471,0.892937 4.144876,1.106618 l 0.538488,2.618335 C 22.475655,45.459517 23.233483,45.5 24,45.5 c 0.766516,0 1.524346,-0.04048 2.270049,-0.118566 l 0.538487,-2.618335 c 1.440405,-0.213683 2.829304,-0.588378 4.144877,-1.106618 l 1.778492,2.000804 c 1.393008,-0.61916 2.707235,-1.384765 3.925035,-2.272519 l -0.842314,-2.539293 c 1.120931,-0.893108 2.137739,-1.909917 3.030847,-3.030847 l 2.539293,0.842314 c 0.887754,-1.2178 1.653359,-2.532027 2.272519,-3.925035 l -2.000804,-1.778492 c 0.51824,-1.315573 0.892937,-2.704471 1.106617,-4.144877 l 2.618336,-0.538487 C 45.459517,25.524346 45.5,24.766516 45.5,24 c 0,-0.766517 -0.04048,-1.524345 -0.118566,-2.270048 l -2.618336,-0.538488 c -0.21368,-1.440405 -0.588377,-2.829304 -1.106617,-4.144876 l 2.000804,-1.778493 C 43.038124,13.875087 42.27252,12.560862 41.384766,11.343061 l -2.539293,0.842313 C 37.952365,11.064444 36.935557,10.047637 35.814626,9.154527 L 36.65694,6.615235 C 35.43914,5.727481 34.124913,4.9618758 32.731905,4.3427161 L 30.953413,6.34352 C 29.63784,5.82528 28.248941,5.4505838 26.808536,5.2369026 L 26.270049,2.6185662 C 25.524346,2.5404795 24.766516,2.5 24,2.5 Z"
     id="path292" /></svg>

<?xml version="1.0" encoding="UTF-8"?><svg id="b" xmlns="http://www.w3.org/2000/svg" viewBox="0 0 48 48"><defs><style>.g{fill:none;stroke:#fff;stroke-linecap:round;stroke-linejoin:round;}</style></defs><path id="d" class="g" d="M11.1405,24.946l6.7023.0321,2.1486-4.201,2.5976,9.9413,3.5917-13.4367,2.8541,7.7606,7.8247-.1603"/><path id="e" class="g" d="M36.2876,27.0133c-1.3516,5.53-6.3395,9.6338-12.2859,9.6338-5.9514,0-10.9426-4.1107-12.2893-9.6477M11.8176,20.5974c1.4859-5.3322,6.3781-9.2445,12.1841-9.2445,5.7753,0,10.6464,3.8711,12.1602,9.1601"/><path id="f" class="g" d="M24,2.5c-.7665,0-1.5243.0405-2.27.1186l-.5385,2.6183c-1.4404.2137-2.8293.5884-4.1449,1.1066l-1.7785-2.0008c-1.393.6192-2.7072,1.3848-3.925,2.2725l.8423,2.5393c-1.1209.8931-2.1377,1.9099-3.0308,3.0308l-2.5393-.8423c-.8878,1.2178-1.6534,2.532-2.2725,3.925l2.0008,1.7785c-.5182,1.3156-.8929,2.7045-1.1066,4.1449l-2.6183.5385c-.0781.7457-.1186,1.5035-.1186,2.27s.0405,1.5243.1186,2.2701l2.6183.5385c.2137,1.4404.5884,2.8293,1.1066,4.1449l-2.0008,1.7785c.6192,1.393,1.3848,2.7072,2.2725,3.925l2.5393-.8423c.8931,1.1209,1.9099,2.1377,3.0308,3.0308l-.8423,2.5393c1.2178.8878,2.532,1.6534,3.925,2.2725l1.7785-2.0008c1.3156.5182,2.7045.8929,4.1449,1.1066l.5385,2.6183c.7457.0781,1.5035.1186,2.27.1186s1.5243-.0405,2.2701-.1186l.5385-2.6183c1.4404-.2137,2.8293-.5884,4.1449-1.1066l1.7785,2.0008c1.393-.6192,2.7072-1.3848,3.925-2.2725l-.8423-2.5393c1.1209-.8931,2.1377-1.9099,3.0308-3.0308l2.5393.8423c.8878-1.2178,1.6534-2.532,2.2725-3.925l-2.0008-1.7785c.5182-1.3156.8929-2.7045,1.1066-4.1449l2.6183-.5385c.0781-.7457.1186-1.5035.1186-2.2701s-.0405-1.5243-.1186-2.27l-2.6183-.5385c-.2137-1.4404-.5884-2.8293-1.1066-4.1449l2.0008-1.7785c-.6192-1.393-1.3848-2.7072-2.2725-3.925l-2.5393.8423c-.8931-1.1209-1.9099-2.1377-3.0308-3.0308l.8423-2.5393c-1.2178-.8878-2.532-1.6534-3.925-2.2725l-1.7785,2.0008c-1.3156-.5182-2.7045-.8929-4.1449-1.1066l-.5385-2.6183c-.7457-.0781-1.5035-.1186-2.27-.1186Z"/></svg>
